X: 1
T:Beanfield
M:2/4
L:1/8
Q:70
C:Jon Swayne
R:Bourree
Z:Steve Mansfield
K:C
GddG|eeGf|g>fe_B|a>gf_B|GddG|eeGf|g>fe_B|A4:|:K:G dBBe|ccfd|dgee|a>gfA|d
BBe|ccfd|dge>d|c4:|
